@extra/phlat-icons/symbolic/xfce4-menueditor.svg

<svg xmlns="http://www.w3.org/2000/svg" version="1.1" viewBox="0 0 16 16"><g fill="#f1f2f2"><path d="m3 3v2h5.5547l1.7223-1.7227a1.0232 1.0232 0 0 1 0.407 -0.25 1.0232 1.0232 0 0 1 0.009 -0.0273h-7.693zm0 4v2h1.5566l2-2h-3.5566zm10 0.4453l-1.555 1.5547h1.555v-1.5547zm-3.5547 3.5547l-2 2h5.5547v-2h-3.5547z"/><path fill-rule="evenodd" d="m5.002 9.989 6.998-7 2 2-7 7h-2z"/><path style="color:#000000;isolation:auto;mix-blend-mode:normal" d="m14.19 1a0.513 0.513 0 0 0 -0.364 0.152l-1.163 1.16 2.005 2.005 1.163-1.162a0.514 0.514 0 0 0 0 -0.728l-1.277-1.275a0.514 0.514 0 0 0 -0.364 -0.152z" fill-rule="evenodd" overflow="visible"/></g></svg>

<svg xmlns="http://www.w3.org/2000/svg" viewBox="0 0 16 16">
    <g fill="#f1f2f2">
        <path d="M3 3v2h5.555l1.722-1.723a1.023 1.023 0 0 1 .407-.25A1.023 1.023 0 0 1 10.693 3H3zm0 4v2h1.557l2-2H3zm10 .445L11.445 9H13V7.445zM9.445 11l-2 2H13v-2H9.445z"/>
        <path fill-rule="evenodd" d="M5.002 9.989l6.998-7 2 2-7 7H5z"/>
        <path style="isolation:auto;mix-blend-mode:normal" d="M14.19 1a.513.513 0 0 0-.364.152l-1.163 1.16 2.005 2.005 1.163-1.162a.514.514 0 0 0 0-.728l-1.277-1.275A.514.514 0 0 0 14.19 1z" fill-rule="evenodd" overflow="visible" color="#000"/>
    </g>
</svg>
